Flat-Remix-Black-Light/actions/24/mail-mark-unread.svg

<svg width="24" height="24" version="1.1" xmlns="http://www.w3.org/2000/svg">
 <defs>
  <style id="current-color-scheme" type="text/css">.ColorScheme-Text { color:#5c616c; } .ColorScheme-Highlight { color:#367bf0; } .ColorScheme-NeutralText { color:#ffcc44; } .ColorScheme-PositiveText { color:#3db47e; } .ColorScheme-NegativeText { color:#dd4747; }</style>
 </defs>
 <g transform="translate(4,4)">
  <path class="ColorScheme-Text" d="m2 2c-2 0-2 2-2 2v8s0 2 2 2h12c2 0 2-2 2-2v-8s0-2-2-2zm0 2 6 3 6-3v2l-6 3-6-3z" style="fill:currentColor"/>
 </g>
</svg>

<svg xmlns="http://www.w3.org/2000/svg" width="24" height="24" version="1.1">
 <defs>
  <style id="current-color-scheme" type="text/css">
   .ColorScheme-Text { color:#5c616c; } .ColorScheme-Highlight { color:#367bf0; } .ColorScheme-NeutralText { color:#ffcc44; } .ColorScheme-PositiveText { color:#3db47e; } .ColorScheme-NegativeText { color:#dd4747; }
  </style>
 </defs>
 <g transform="translate(4,4)">
  <path style="fill:currentColor" class="ColorScheme-Text" d="M 2,2 C 0,2 0,4 0,4 V 12 C 0,12 0,14 2,14 H 14 C 16,14 16,12 16,12 V 4 C 16,4 16,2 14,2 Z M 2,4 8,7 14,4 V 6 L 8,9 2,6 Z"/>
 </g>
</svg>
